src/images/menu.svg

<svg width="22" height="18" viewBox="0 0 22 18" xmlns="http://www.w3.org/2000/svg"><title>menu icon</title><path d="M0 16h22v2H0v-2zm0-8h22v2H0V8zm0-8h22v2H0V0z" fill="#000" fill-rule="evenodd"/></svg>

<?xml version="1.0" encoding="UTF-8" standalone="no"?>
<svg width="22px" height="18px" viewBox="0 0 22 18" version="1.1" xmlns="http://www.w3.org/2000/svg" xmlns:xlink="http://www.w3.org/1999/xlink">
    <!-- Generator: Sketch 3.6.1 (26313) - http://www.bohemiancoding.com/sketch -->
    <title>menu icon</title>
    <desc>Created with Sketch.</desc>
    <defs></defs>
    <g id="Page-1" stroke="none" stroke-width="1" fill="none" fill-rule="evenodd">
        <path d="M0,16 L22,16 L22,18 L0,18 L0,16 Z M0,8 L22,8 L22,10 L0,10 L0,8 Z M0,0 L22,0 L22,2 L0,2 L0,0 Z" id="menu-icon" fill="#000000"></path>
    </g>
</svg>
